apps/app.mento.org/public/tokens/NGNm.svg

<svg width="220" height="220" viewBox="0 0 220 220" fill="none" xmlns="http://www.w3.org/2000/svg">
<path d="M110 220C170.751 220 220 170.751 220 110C220 49.2487 170.751 0 110 0C49.2487 0 0 49.2487 0 110C0 170.751 49.2487 220 110 220Z" fill="#510DC1"/>
<path d="M110 23C158.049 23 197 61.9512 197 110C197 158.049 158.049 197 110 197C61.9512 197 23 158.049 23 110C23 61.9512 61.9512 23 110 23Z" stroke="url(#paint0_linear_2057_355)" stroke-width="36"/>
<path d="M110 202C160.81 202 202 160.81 202 110C202 59.1898 160.81 18 110 18C59.1898 18 18 59.1898 18 110C18 160.81 59.1898 202 110 202Z" fill="#510DC1"/>
<path d="M75 166V126.979H64V116.097H75V104.282H64V93.3992H75V55H97.8333L111.833 93.3992H128.667V55H145.167V93.3992H156V104.282H145.167V116.097H156V126.979H145.167V166H122.167L107.833 126.979H91.3333V166H75ZM91.3333 116.097H104.167L100 104.282H91L91.3333 116.097ZM129 142.681H129.833L129.167 126.979H123.667L129 142.681ZM90.8333 93.3992H96.3333L90.6667 76.7647H90L90.8333 93.3992ZM120 116.097H129L128.667 104.282H115.833L120 116.097Z" fill="url(#paint1_linear_2057_355)"/>
<defs>
<linearGradient id="paint0_linear_2057_355" x1="110" y1="5" x2="110" y2="215" gradientUnits="userSpaceOnUse">
<stop stop-color="#02C66A"/>
<stop offset="0.35" stop-color="white"/>
<stop offset="0.65" stop-color="white"/>
<stop offset="1" stop-color="#02C66A"/>
</linearGradient>
<linearGradient id="paint1_linear_2057_355" x1="110" y1="55" x2="110" y2="166" gradientUnits="userSpaceOnUse">
<stop stop-color="#E2DBFF"/>
<stop offset="0.975962" stop-color="#FBFAFF"/>
</linearGradient>
</defs>
</svg>

<svg xmlns="http://www.w3.org/2000/svg" width="220" height="220" fill="none" viewBox="0 0 220 220"><path fill="#510dc1" d="M110 220c60.751 0 110-49.249 110-110S170.751 0 110 0 0 49.249 0 110s49.249 110 110 110"/><path stroke="url(#a)" stroke-width="36" d="M110 23c48.049 0 87 38.951 87 87s-38.951 87-87 87-87-38.951-87-87 38.951-87 87-87Z"/><path fill="#510dc1" d="M110 202c50.81 0 92-41.19 92-92s-41.19-92-92-92-92 41.19-92 92 41.19 92 92 92"/><path fill="url(#b)" d="M75 166v-39.021H64v-10.882h11v-11.815H64V93.399h11V55h22.833l14 38.4h16.834V55h16.5v38.4H156v10.882h-10.833v11.815H156v10.882h-10.833V166h-23l-14.334-39.021h-16.5V166zm16.333-49.903h12.834L100 104.282h-9zM129 142.681h.833l-.666-15.702h-5.5zM90.833 93.399h5.5l-5.666-16.634H90zM120 116.097h9l-.333-11.815h-12.834z"/><defs><linearGradient id="a" x1="110" x2="110" y1="5" y2="215" gradientUnits="userSpaceOnUse"><stop stop-color="#02c66a"/><stop offset=".35" stop-color="#fff"/><stop offset=".65" stop-color="#fff"/><stop offset="1" stop-color="#02c66a"/></linearGradient><linearGradient id="b" x1="110" x2="110" y1="55" y2="166" gradientUnits="userSpaceOnUse"><stop stop-color="#e2dbff"/><stop offset=".976" stop-color="#fbfaff"/></linearGradient></defs></svg>
